_inc/systems/logos/nes.svg

<?xml version="1.0" encoding="utf-8"?>
<svg version="1.1" id="Ebene_1" x="0px" y="0px" enable-background="new 0 0 340.154 126.123" viewBox="0 0 264 84" xmlns="http://www.w3.org/2000/svg">
  <path d="M 231.43 65.049 L 32.563 65.049 C 14.609 65.049 0 50.458 0 32.524 C 0 14.59 14.61 0 32.563 0 L 231.428 0 C 249.384 0 263.991 14.59 263.991 32.524 C 263.989 50.458 249.385 65.049 231.43 65.049 Z M 32.563 7.694 C 18.856 7.694 7.703 18.833 7.703 32.526 C 7.703 46.217 18.855 57.358 32.563 57.358 L 231.428 57.358 C 245.133 57.358 256.288 46.218 256.288 32.526 C 256.288 18.834 245.135 7.694 231.428 7.694 L 32.563 7.694 Z" id="path5" style="fill-opacity: 1; fill: rgb(255, 255, 255);"/>
  <path d="M 58.104 47.608 L 58.104 17.587 L 49.064 17.587 L 49.064 38.577 L 35.733 17.587 L 26.017 17.587 L 26.017 47.608 L 35.056 47.608 L 35.056 25.939 L 49.064 47.608 L 58.104 47.608 Z" id="path7" style="fill-opacity: 1; fill: rgb(255, 255, 255);"/>
  <path d="M 72.792 47.608 L 72.792 27.293 L 63.754 27.293 L 63.754 47.608 L 72.792 47.608 Z" id="path9" style="fill-opacity: 1; fill: rgb(255, 255, 255);"/>
  <path d="M 72.792 23.003 L 72.792 17.587 L 63.754 17.587 L 63.754 23.003 L 72.792 23.003 Z" id="path11" style="fill-opacity: 1; fill: rgb(255, 255, 255);"/>
  <path id="_x33_162" d="M 104.427 47.608 L 104.427 33.611 C 104.427 30.677 98.777 26.615 95.841 26.615 L 93.128 26.615 C 91.095 26.615 88.835 28.421 86.801 29.324 L 86.801 27.293 L 77.762 27.293 L 77.762 47.608 L 86.801 47.608 L 86.801 33.611 C 86.801 32.257 89.964 30.677 91.321 30.677 C 92.677 30.677 95.162 32.257 95.162 33.611 L 95.162 47.607 L 104.427 47.607 L 104.427 47.608 Z" style="fill-opacity: 1; fill: rgb(255, 255, 255);"/>
  <path id="_x33_162_1_" d="M 180.055 48.307 L 180.055 34.312 C 180.055 31.377 174.408 27.315 171.465 27.315 L 168.756 27.315 C 166.721 27.315 164.461 29.121 162.426 30.024 L 162.426 27.993 L 153.389 27.993 L 153.389 48.308 L 162.426 48.308 L 162.426 34.312 C 162.426 32.958 165.591 31.377 166.947 31.377 C 168.302 31.377 170.786 32.958 170.786 34.312 L 170.786 48.307 L 180.055 48.307 Z" style="fill-opacity: 1; fill: rgb(255, 255, 255);"/>
  <path d="M 119.115 47.608 L 119.115 27.293 L 123.861 27.293 L 123.861 24.584 L 119.115 24.584 L 119.115 20.296 L 109.853 20.296 L 109.853 24.584 L 105.106 24.584 L 105.106 27.293 L 109.853 27.293 L 109.853 47.608 L 119.115 47.608 Z" id="path15" style="fill-opacity: 1; fill: rgb(255, 255, 255);"/>
  <path d="M 136.514 26.616 C 129.284 26.616 123.183 31.581 123.183 37.675 C 123.183 43.997 129.284 48.962 136.514 48.962 C 142.842 48.962 148.039 45.35 149.395 40.61 L 140.132 40.61 L 140.132 43.319 C 140.132 45.576 138.552 46.256 136.518 46.256 C 134.485 46.256 133.128 45.577 133.128 43.319 L 133.128 37.676 L 149.851 37.676 C 149.849 31.582 143.973 26.616 136.514 26.616 Z M 136.514 28.647 C 138.549 28.647 140.13 30.002 140.13 32.259 L 140.13 34.289 L 133.125 34.289 L 133.125 32.259 C 133.125 30.002 134.482 28.647 136.514 28.647 Z" id="path17" style="fill-opacity: 1; fill: rgb(255, 255, 255);"/>
  <path d="M 225.551 26.616 C 218.092 26.616 212.217 31.581 212.217 37.675 C 212.217 43.997 218.09 48.962 225.551 48.962 C 232.778 48.962 238.881 43.997 238.881 37.675 C 238.878 31.582 232.778 26.616 225.551 26.616 Z M 225.551 28.647 C 227.581 28.647 228.939 30.002 228.939 32.259 L 228.939 43.318 C 228.939 45.575 227.581 46.253 225.551 46.253 C 223.292 46.253 221.933 45.575 221.933 43.318 L 221.933 32.259 C 221.931 30.002 223.289 28.647 225.551 28.647 Z" id="path19" style="fill-opacity: 1; fill: rgb(255, 255, 255);"/>
  <path d="M 199.561 17.587 L 199.561 28.647 C 199.561 28.647 196.848 26.616 193.232 26.616 C 187.583 26.616 182.838 31.581 182.838 36.998 C 182.838 42.643 187.585 48.286 193.232 48.286 C 196.848 48.286 199.561 46.931 199.561 46.931 L 199.561 47.607 L 208.6 47.607 L 208.6 17.587 L 199.561 17.587 Z M 196.171 30.002 C 198.204 30.002 199.561 31.582 199.561 33.612 L 199.561 41.964 C 199.561 43.997 198.204 44.673 196.171 44.673 C 193.913 44.673 192.555 43.998 192.555 41.964 L 192.555 33.612 C 192.555 31.582 193.913 30.002 196.171 30.002 Z" id="path21" style="fill-opacity: 1; fill: rgb(255, 255, 255);"/>
  <path id="_x32_399" d="M 26.693 83.873 L 26.693 76.577 C 26.693 75.194 25.309 73.81 23.924 73.81 L 13.347 73.81 L 13.347 83.873 L 16.621 83.873 L 16.621 77.082 C 16.621 76.579 16.998 76.076 17.502 76.076 L 22.538 76.076 C 23.042 76.076 23.546 76.579 23.546 77.082 L 23.546 83.873 L 26.693 83.873 Z" style="fill-opacity: 1; fill: rgb(255, 255, 255);"/>
  <path id="_x32_399_1_" d="M 114.069 83.873 L 114.069 76.577 C 114.069 75.194 112.684 73.81 111.3 73.81 L 100.723 73.81 L 100.723 83.873 L 103.995 83.873 L 103.995 77.082 C 103.995 76.579 104.374 76.076 104.878 76.076 L 109.914 76.076 C 110.418 76.076 110.92 76.579 110.92 77.082 L 110.92 83.873 L 114.069 83.873 Z" style="fill-opacity: 1; fill: rgb(255, 255, 255);"/>
  <path id="_x32_399_2_" d="M 161.895 83.873 L 161.895 76.577 C 161.895 75.194 160.511 73.81 159.125 73.81 L 148.548 73.81 L 148.548 83.873 L 151.821 83.873 L 151.821 77.082 C 151.821 76.579 152.198 76.076 152.704 76.076 L 157.739 76.076 C 158.243 76.076 158.746 76.579 158.746 77.082 L 158.746 83.873 L 161.895 83.873 Z" style="fill-opacity: 1; fill: rgb(255, 255, 255);"/>
  <path id="_x33_177" d="M 133.344 83.873 L 133.344 76.577 C 133.344 75.194 131.959 73.81 130.573 73.81 L 116.345 73.81 L 116.345 83.873 L 119.619 83.873 L 119.619 77.082 C 119.619 76.579 119.995 76.076 120.499 76.076 L 122.388 76.076 C 122.767 76.076 123.27 76.579 123.27 77.082 L 123.27 83.873 L 126.545 83.873 L 126.545 77.082 C 126.545 76.579 126.921 76.076 127.425 76.076 L 129.314 76.076 C 129.692 76.076 130.196 76.579 130.196 77.082 L 130.196 83.873 L 133.344 83.873 Z" style="fill-opacity: 1; fill: rgb(255, 255, 255);"/>
  <path id="_x33_181" d="M 11.081 83.873 L 2.77 83.873 C 1.386 83.873 0 82.993 0 81.61 L 0 73.687 L 11.081 73.687 L 11.081 76.077 L 3.651 76.077 C 3.274 76.077 2.77 76.455 2.77 76.958 C 2.77 77.462 3.274 77.839 3.651 77.839 L 10.577 77.839 L 10.577 79.85 L 3.651 79.85 C 3.274 79.85 2.77 80.354 2.77 80.732 C 2.77 81.235 3.274 81.737 3.651 81.737 L 11.081 81.737 L 11.081 83.873 Z" style="fill-opacity: 1; fill: rgb(255, 255, 255);"/>
  <path id="_x33_181_1_" d="M 52.01 84 L 43.699 84 C 42.314 84 40.928 83.12 40.928 81.737 L 40.928 73.812 L 52.01 73.812 L 52.01 76.202 L 44.579 76.202 C 44.203 76.202 43.699 76.58 43.699 77.084 C 43.699 77.588 44.203 77.965 44.579 77.965 L 51.505 77.965 L 51.505 79.976 L 44.579 79.976 C 44.203 79.976 43.699 80.48 43.699 80.858 C 43.699 81.362 44.203 81.863 44.579 81.863 L 52.01 81.863 L 52.01 84 Z" style="fill-opacity: 1; fill: rgb(255, 255, 255);"/>
  <path id="_x33_181_2_" d="M 146.743 83.873 L 138.431 83.873 C 137.047 83.873 135.66 82.993 135.66 81.61 L 135.66 73.687 L 146.742 73.687 L 146.742 76.077 L 139.313 76.077 C 138.935 76.077 138.43 76.455 138.43 76.958 C 138.43 77.462 138.934 77.839 139.313 77.839 L 146.236 77.839 L 146.236 79.85 L 139.313 79.85 C 138.935 79.85 138.43 80.354 138.43 80.732 C 138.43 81.235 138.934 81.737 139.313 81.737 L 146.742 81.737 L 146.742 83.875 L 146.743 83.875 L 146.743 83.873 Z" style="fill-opacity: 1; fill: rgb(255, 255, 255);"/>
  <path id="_x32_391" d="M 28.079 73.811 L 28.079 76.076 L 31.353 76.076 C 32.234 76.076 32.234 76.076 32.234 77.082 L 32.234 83.873 L 35.382 83.873 L 35.382 77.082 C 35.382 76.076 35.382 76.076 36.389 76.076 L 39.537 76.076 L 39.537 73.811 L 28.079 73.811 Z" style="fill-opacity: 1; fill: rgb(255, 255, 255);"/>
  <path id="_x32_391_1_" d="M 68.089 73.811 L 68.089 76.076 L 71.362 76.076 C 72.243 76.076 72.243 76.076 72.243 77.082 L 72.243 83.873 L 75.39 83.873 L 75.39 77.082 C 75.39 76.076 75.39 76.076 76.399 76.076 L 79.547 76.076 L 79.547 73.811 L 68.089 73.811 Z" style="fill-opacity: 1; fill: rgb(255, 255, 255);"/>
  <path id="_x32_391_2_" d="M 163.74 73.811 L 163.74 76.076 L 167.014 76.076 C 167.896 76.076 167.896 76.076 167.896 77.082 L 167.896 83.873 L 171.043 83.873 L 171.043 77.082 C 171.043 76.076 171.043 76.076 172.05 76.076 L 175.197 76.076 L 175.197 73.811 L 163.74 73.811 Z" style="fill-opacity: 1; fill: rgb(255, 255, 255);"/>
  <path d="M 54.269 73.811 L 54.269 83.875 L 57.543 83.875 L 57.543 82.115 C 57.543 81.612 57.921 81.107 58.424 81.107 L 62.579 81.107 C 63.084 81.107 63.461 81.611 63.461 82.115 L 63.461 83.875 L 66.231 83.875 L 66.231 81.107 C 66.231 80.731 65.854 80.228 65.854 79.724 C 65.854 79.348 66.736 78.468 66.736 77.462 L 66.736 76.581 C 66.736 75.699 65.351 73.812 64.469 73.812 L 54.269 73.811 Z M 58.424 76.076 L 62.579 76.076 C 63.084 76.076 63.46 76.579 63.46 77.082 L 63.46 77.962 C 63.46 78.465 63.083 78.843 62.579 78.843 L 58.424 78.843 C 57.921 78.843 57.543 78.466 57.543 77.962 L 57.543 77.082 C 57.544 76.58 57.921 76.076 58.424 76.076 Z" id="path37" style="fill-opacity: 1; fill: rgb(255, 255, 255);"/>
  <path d="M 83.23 73.811 C 82.348 73.811 80.964 75.698 80.964 76.58 L 80.964 83.875 L 84.237 83.875 L 84.237 81.107 L 90.154 81.107 L 90.154 83.875 L 93.427 83.875 L 93.427 76.58 C 93.427 75.698 92.043 73.811 91.035 73.811 L 83.23 73.811 Z M 85.118 76.076 L 89.273 76.076 C 89.65 76.076 90.154 76.579 90.154 77.082 L 90.154 78.843 L 84.237 78.843 L 84.237 77.082 C 84.237 76.58 84.615 76.076 85.118 76.076 Z" id="path39" style="fill-opacity: 1; fill: rgb(255, 255, 255);"/>
  <path d="M 98.842 83.873 L 98.842 73.81 L 95.696 73.81 L 95.696 83.874 L 98.842 83.874 L 98.842 83.873 Z" id="path41" style="fill-opacity: 1; fill: rgb(255, 255, 255);"/>
  <path id="_x33_177_1_" d="M 264 83.86 L 264 76.565 C 264 75.182 262.615 73.797 261.228 73.797 L 247.001 73.797 L 247.001 83.86 L 250.274 83.86 L 250.274 77.069 C 250.274 76.565 250.651 76.062 251.155 76.062 L 253.043 76.062 C 253.422 76.062 253.926 76.565 253.926 77.069 L 253.926 83.859 L 257.198 83.859 L 257.198 77.069 C 257.198 76.565 257.575 76.062 258.079 76.062 L 259.968 76.062 C 260.346 76.062 260.851 76.565 260.851 77.069 L 260.851 83.859 L 263.999 83.859 L 264 83.86 Z" style="fill-opacity: 1; fill: rgb(255, 255, 255);"/>
  <path id="_x33_181_3_" d="M 244.747 83.86 L 236.436 83.86 C 235.051 83.86 233.666 82.979 233.666 81.598 L 233.666 73.673 L 244.746 73.673 L 244.746 76.063 L 237.318 76.063 C 236.94 76.063 236.436 76.44 236.436 76.944 C 236.436 77.447 236.94 77.824 237.318 77.824 L 244.242 77.824 L 244.242 79.836 L 237.318 79.836 C 236.94 79.836 236.436 80.34 236.436 80.717 C 236.436 81.221 236.94 81.723 237.318 81.723 L 244.746 81.723 L 244.747 83.86 Z" style="fill-opacity: 1; fill: rgb(255, 255, 255);"/>
  <path id="_x32_391_3_" d="M 220.816 73.797 L 220.816 76.06 L 224.089 76.06 C 224.971 76.06 224.971 76.06 224.971 77.067 L 224.971 83.857 L 228.118 83.857 L 228.118 77.067 C 228.118 76.06 228.118 76.06 229.127 76.06 L 232.273 76.06 L 232.273 73.797 L 220.816 73.797 Z" style="fill-opacity: 1; fill: rgb(255, 255, 255);"/>
  <path id="_x33_187" d="M 183.523 73.85 C 182.641 73.85 180.752 75.234 180.752 76.113 L 180.752 77.498 C 180.752 78.378 182.641 79.761 183.523 79.761 L 189.063 79.761 C 189.567 79.761 190.07 80.265 190.07 80.642 C 190.07 81.145 189.566 81.647 189.063 81.647 L 180.752 81.647 L 180.752 83.91 L 190.07 83.91 C 190.952 83.91 192.714 82.527 192.714 81.647 L 192.714 80.264 C 192.714 79.257 190.952 77.873 190.07 77.873 L 184.53 77.873 C 184.026 77.873 183.523 77.496 183.523 76.992 C 183.523 76.489 184.026 76.111 184.53 76.111 L 192.714 76.111 L 192.714 73.849 L 183.523 73.849 L 183.523 73.85 Z" style="fill-opacity: 1; fill: rgb(255, 255, 255);"/>
  <path id="_x33_187_1_" d="M 210.196 73.85 C 209.314 73.85 207.425 75.234 207.425 76.113 L 207.425 77.498 C 207.425 78.378 209.314 79.761 210.196 79.761 L 215.736 79.761 C 216.239 79.761 216.743 80.265 216.743 80.642 C 216.743 81.145 216.239 81.647 215.736 81.647 L 207.425 81.647 L 207.425 83.91 L 216.743 83.91 C 217.624 83.91 219.387 82.527 219.387 81.647 L 219.387 80.264 C 219.387 79.257 217.624 77.873 216.743 77.873 L 211.202 77.873 C 210.698 77.873 210.195 77.496 210.195 76.992 C 210.195 76.489 210.699 76.111 211.202 76.111 L 219.387 76.111 L 219.387 73.849 L 210.196 73.849 L 210.196 73.85 Z" style="fill-opacity: 1; fill: rgb(255, 255, 255);"/>
  <path d="M 193.722 73.85 L 193.722 78.38 C 193.722 79.26 195.106 80.643 195.988 80.643 L 198.253 80.643 L 198.253 83.912 L 201.527 83.912 L 201.527 80.643 L 203.794 80.643 C 204.674 80.643 206.06 79.26 206.06 78.38 L 206.06 73.85 L 202.912 73.85 L 202.912 77.499 C 202.912 77.875 202.408 78.38 201.905 78.38 L 197.876 78.38 C 197.372 78.38 196.868 77.876 196.868 77.499 L 196.868 73.85 L 193.722 73.85 Z" id="path48" style="fill-opacity: 1; fill: rgb(255, 255, 255);"/>
</svg>

<svg xmlns="http://www.w3.org/2000/svg" viewBox="0 0 264 84"><path d="M231.43 65.05H32.56A32.6 32.6 0 0 1 0 32.52 32.6 32.6 0 0 1 32.56 0h198.87a32.6 32.6 0 0 1 32.56 32.52 32.6 32.6 0 0 1-32.56 32.53M32.56 7.69A24.87 24.87 0 0 0 7.7 32.53a24.87 24.87 0 0 0 24.86 24.83h198.87a24.9 24.9 0 0 0 24.86-24.83 24.87 24.87 0 0 0-24.86-24.84z" style="fill-opacity:1;fill:#fff"/><path d="M58.1 47.6v-30h-9.04v20.99l-13.33-21h-9.71v30.03h9.04V25.94l14 21.67zm14.7 0V27.3h-9.05v20.3zm0-24.6v-5.4h-9.05V23zm31.63 24.6V33.62c0-2.93-5.65-7-8.59-7h-2.71c-2.03 0-4.3 1.81-6.33 2.71V27.3h-9.04v20.32h9.04v-14c0-1.35 3.16-2.93 4.52-2.93s3.84 1.58 3.84 2.93v14zm75.63.7V34.32c0-2.93-5.65-7-8.6-7h-2.7c-2.04 0-4.3 1.81-6.33 2.71V28h-9.04v20.32h9.04v-14c0-1.35 3.16-2.93 4.52-2.93s3.84 1.58 3.84 2.93v14zm-60.94-.7V27.3h4.74v-2.72h-4.75V20.3h-9.26v4.28h-4.74v2.71h4.74v20.32zm17.39-20.98c-7.23 0-13.33 4.96-13.33 11.05 0 6.33 6.1 11.3 13.33 11.3 6.33 0 11.53-3.62 12.89-8.36h-9.27v2.7c0 2.27-1.58 2.95-3.61 2.95s-3.4-.68-3.4-2.94v-5.64h16.73c0-6.1-5.88-11.06-13.34-11.06m0 2.03c2.04 0 3.62 1.35 3.62 3.6v2.04h-7v-2.03c0-2.26 1.35-3.61 3.38-3.61m89.04-2.03c-7.46 0-13.33 4.96-13.33 11.05 0 6.33 5.87 11.3 13.33 11.3 7.23 0 13.33-4.97 13.33-11.3 0-6.09-6.1-11.05-13.33-11.05m0 2.03c2.03 0 3.39 1.35 3.39 3.6v11.07c0 2.26-1.36 2.93-3.39 2.93-2.26 0-3.62-.67-3.62-2.93V32.26c0-2.26 1.36-3.61 3.62-3.61m-25.99-11.06v11.06s-2.71-2.03-6.33-2.03c-5.65 0-10.4 4.96-10.4 10.38 0 5.64 4.75 11.29 10.4 11.29 3.62 0 6.33-1.36 6.33-1.36v.68h9.04V17.59zM196.17 30c2.03 0 3.4 1.58 3.4 3.61v8.35c0 2.04-1.37 2.71-3.4 2.71-2.26 0-3.61-.67-3.61-2.7V33.6c0-2.03 1.35-3.6 3.61-3.6M26.7 83.87v-7.3a3 3 0 0 0-2.78-2.76H13.35v10.06h3.27v-6.79c0-.5.38-1 .88-1h5.04c.5 0 1 .5 1 1v6.8zm87.37 0v-7.3a3 3 0 0 0-2.77-2.76h-10.58v10.06H104v-6.79c0-.5.37-1 .88-1h5.03c.5 0 1.01.5 1.01 1v6.8zm47.83 0v-7.3a3 3 0 0 0-2.78-2.76h-10.57v10.06h3.27v-6.79c0-.5.38-1 .88-1h5.04c.5 0 1 .5 1 1v6.8zm-28.56 0v-7.3a3 3 0 0 0-2.77-2.76h-14.22v10.06h3.27v-6.79c0-.5.38-1 .88-1h1.89c.38 0 .88.5.88 1v6.8h3.28v-6.8c0-.5.37-1 .88-1h1.88c.38 0 .89.5.89 1v6.8zm-122.26 0H2.77C1.39 83.87 0 83 0 81.61v-7.92h11.08v2.39H3.65c-.38 0-.88.38-.88.88s.5.88.88.88h6.93v2.01H3.65c-.38 0-.88.5-.88.88 0 .5.5 1 .88 1h7.43zm40.93.13H43.7c-1.39 0-2.77-.88-2.77-2.26V73.8H52v2.4h-7.43c-.38 0-.88.37-.88.87s.5.89.88.89h6.93v2h-6.93c-.38 0-.88.51-.88.89 0 .5.5 1 .88 1H52zm94.73-.13h-8.3c-1.4 0-2.78-.88-2.78-2.26v-7.92h11.08v2.39h-7.43c-.37 0-.88.38-.88.88s.5.88.88.88h6.93v2.01h-6.93c-.37 0-.88.5-.88.88 0 .5.5 1 .88 1h7.43zM28.08 73.81v2.27h3.27c.88 0 .88 0 .88 1v6.8h3.15v-6.8c0-1 0-1 1-1h3.16V73.8zm40.01 0v2.27h3.27c.88 0 .88 0 .88 1v6.8h3.15v-6.8c0-1 0-1 1-1h3.16V73.8zm95.65 0v2.27h3.27c.89 0 .89 0 .89 1v6.8h3.14v-6.8c0-1 0-1 1.01-1h3.15V73.8zm-109.47 0v10.06h3.27v-1.76c0-.5.38-1 .88-1h4.16c.5 0 .88.5.88 1v1.77h2.77V81.1c0-.38-.38-.88-.38-1.39 0-.37.89-1.25.89-2.26v-.88c0-.88-1.39-2.77-2.27-2.77zm4.15 2.27h4.16c.5 0 .88.5.88 1v.88c0 .5-.38.88-.88.88h-4.16a.86.86 0 0 1-.88-.88v-.88c0-.5.38-1 .88-1m24.81-2.27c-.88 0-2.27 1.89-2.27 2.77v7.3h3.28V81.1h5.91v2.77h3.28v-7.3c0-.88-1.39-2.77-2.4-2.77zm1.89 2.27h4.15c.38 0 .88.5.88 1v1.76h-5.91v-1.76c0-.5.38-1 .88-1m13.72 7.79V73.81H95.7v10.06zM264 83.86v-7.3a3 3 0 0 0-2.77-2.76H247v10.06h3.27v-6.8c0-.5.38-1 .88-1h1.9c.37 0 .88.5.88 1v6.8h3.27v-6.8c0-.5.38-1 .88-1h1.89c.38 0 .88.5.88 1v6.8zm-19.25 0h-8.31c-1.39 0-2.77-.88-2.77-2.26v-7.93h11.08v2.4h-7.43c-.38 0-.88.37-.88.87s.5.88.88.88h6.92v2.02h-6.92c-.38 0-.88.5-.88.88 0 .5.5 1 .88 1h7.43zM220.82 73.8v2.26h3.27c.88 0 .88 0 .88 1v6.8h3.15v-6.8c0-1 0-1 1-1h3.15V73.8zm-37.3.05c-.88 0-2.77 1.38-2.77 2.26v1.39c0 .88 1.9 2.26 2.77 2.26h5.54c.5 0 1.01.5 1.01.88 0 .5-.5 1-1 1h-8.32v2.27h9.32c.88 0 2.64-1.38 2.64-2.26v-1.39c0-1-1.76-2.39-2.64-2.39h-5.54c-.5 0-1-.37-1-.88 0-.5.5-.88 1-.88h8.18v-2.26zm26.68 0c-.89 0-2.77 1.38-2.77 2.26v1.39c0 .88 1.88 2.26 2.77 2.26h5.54c.5 0 1 .5 1 .88 0 .5-.5 1-1 1h-8.31v2.27h9.31c.88 0 2.65-1.38 2.65-2.26v-1.39c0-1-1.77-2.39-2.65-2.39h-5.54c-.5 0-1-.37-1-.88 0-.5.5-.88 1-.88h8.19v-2.26zm-16.48 0v4.53c0 .88 1.39 2.26 2.27 2.26h2.26v3.27h3.28v-3.27h2.26c.88 0 2.27-1.38 2.27-2.26v-4.53h-3.15v3.65c0 .38-.5.88-1 .88h-4.03c-.5 0-1.01-.5-1.01-.88v-3.65z" style="fill-opacity:1;fill:#fff"/></svg>
